X:25
T:Cliffs of Moher
Z: id:dc-jig-19
M:6/8
L:1/8
K:A Dorian
a3 bag|eaf ged|c2A BAG|EFG ABc|!
eaa bag|eaf ged|c2A BAG|EFG A3:|!
ege dBA|ege dBA|GAB dBA|GAB d3|!
[1 ege dBA|ege dBA|GAB dBA|BAG A3:|!
[2 efe ded|cec BeB|EFG AGE|DB,G, A,3|]!

